X:1
T:Title
%%score ( 1 2 ) { ( 3 5 ) | 4 }
L:1/8
Q:1/4=110
M:4/4
K:A
V:1 treble nm="Grand Piano, Unnamed-000"
V:2 treble 
V:3 bass nm="Choir Pad, Unnamed-001"
V:5 bass 
V:4 bass 
V:1
 z4 z2 E2 | [CE]4 [CE]4 | z4 z2 .F2 | F4 z4 | [CA]3 [CA] [^DG]2 [DF]2 | E4 E4 | %6
 [DE]3 [DE] [DE]2 [DE]2 | [CE]8 |] %8
V:2
 [CE]2 [CE]2 [B,E]2 CD | x8 | [CF]2 [CF]2 [C^E]2 C-[CG] | C4- [CA]4 | x8 | x8 | x8 | x8 |] %8
V:3
 A,2 A,2 G,2 G,2 | A,4 z4 | A,2 A,2 G,2 B,2 | A,2[K:treble] C2 F2 E2 | ^D2[K:bass] z B,, B,2 A,2 | %5
 G,4 A,4 | A,2 G,2 F,2 G,2 | A,8 |] %8
V:4
 z2 E,2 z2 E,2 | z4 C,2 A,,2 | F,,2 A,,2 C,2 C,2 | F,8 | .B,,4 B,,2 B,,2 | E,2 D,2 C,2 =C,2 | %6
 B,,2 B,,2 B,,2 B,,2 | A,,8 |] %8
V:5
 x8 | z2 E,2 A,4 | x8 | x2[K:treble] x6 | z2[K:bass] F,2 z4 | x8 | x8 | x8 |] %8

